X:116
U: ~ = !turn!
%%topmargin 3cm
T:London Lasses
B:Traditional Irish Fiddle Tunes. Randy Miller and Jack Perron.
Z:Transcribed by Ralph Palmer
R:Reel
M:C|
L:1/8
K:D
D3 F A2 FA | Beed Bd d2 | (3.D.D.D DF ADFA | BdAF EGFE |
(3.D.D.D DF ADFA | Beed Bcde | fded Beec | dBAF EGFE ::
(3.d.d.d dA {/c}BAFA | {/c}BAFA DFAc | (3.d.d.d dA {/c}BAFA | BFAF EFAc |
(3.d.d.d dA {/c}BAFA | {/c}BAFA ABde | fded Beec | dBAF EFAc :|]
